X:1
T: Miss Fahey's Fancy
C:
R:Reel
Q: 232
K:D
M:4/4
L:1/8
|:AG|FD DC A,2 FG|A=c BG cB AG|AF DE F2 EF|Dd cA G2 AG|
FD DC ((3A,B,C) CG|AB cA dc de|((3fed) ((3edc) dc AB|=cA GF G2 FG|
Ad de fd ec|AB cA dc AG|Ad de fg ec|AB cA d2 fg|
((3agf) ((3gfe) fd ef|dc AB cA GE|Dd dc Ad eg|fd =cA G2:|
